X:1
T:Semo tre veccinet
T:Semo tre veccinet
T:anonymus
C:anonymus
%%score [ 1 2 3 ]
L:1/8
Q:1/4=120
M:2/2
K:C
V:1 treble nm="Soprano" snm="S"
V:2 treble-8 nm="Tenor" snm="T"
V:3 bass nm="Baritone" snm="B"
V:1
 z4 G4- | G2 G2 E4 | F4 D4 | E4 z2 G2 | G2 A2 G2 G2 | AGFG A2 G2 | F2 E2 DC D2 | E8 :: %8
w: Se-|* mo tre|vec- ci-|net, se-|mo tre vec- ci-|ne- ne- ne- ne- net' in|a- mo- ra- na- na-|i.|
 z2 A2 A2 A2 | A2 A2 G2 FG | F2 EF E4 | E4 z2 A2 | A2 A2 G2 F2 | E2 DE F2 EF | G2 FG A4 | %15
w: Che sem' im-|ber- to na- na- na-|na- na- na- na-|i, di|quel- la gran bel-|ta- na- na- na- na- na-|na- na- na- na-|
 A4 z2 A2 | A2 G2 F2 F2 | E4 ^F2 G2- | G2 G2 A4 | B4 z2 G2 | G2 G2 A2 A2 | G2 F4 E2 | D3 C D2 E2 | %23
w: e, che|por- ta per im-|pre- sa'el do|_ de spa-|e, s'in|ve- ri- ta e,|s'in ve- ri|ta- na- na, s'in|
 D2 D2 E2 E2 :| %24
w: ve- ri- ta e.|
V:2
 z4 e4- | e2 e2 c4 | c4 B4 | c4 z2 e2 | e2 f2 d2 e2 | fede f2 e2 |"^-natural""^b" d2 c2 BA B2 | %7
w: Se-|* mo tre|vec- ci-|net, se-|mo tre vec- ci-|ne- ne- ne- ne- net' in|a- mo- ra- na- na-|
 c8 :: z2 f2 f2 f2 | f2 f2 e2 de | d2 ^cd c4 | ^c4 z2 f2 | f2 f2 e2 d2 | ^c2 Bc d2 cd | e2 de f4 | %15
w: i.|Che- sem' im-|ber- to na- na- na|na- na- a- na-|i, di|quel- la gran bel-|ta- na- na- na- na- na-|na- na- na- na-|
 f4 z2 f2 | f2 e2 d2 d2 | ^c4 d2 e2- | e2 g2 ^f4 | g4 z2 e2 | d2 e2 f2 f2 | e2 d4 c2 | %22
w: e, che|por- ta per im-|pre- sa'el do|_ de sa-|e, s'in|ve ri- ta e,|s'in ve- ri-|
"^-natural" B3 A B2 c2 | A2 B2 c2 c2 :| %24
w: ta- na- na, s'in|ve- ri- ta e.|
V:3
 z4 C4- | C2 C2 A,4 | F,4 G,4 | C,4 z2 C2 | C2 A,2 _B,2 C2 |"^b" F,G,A,B, C2 C2 | %6
w: Se-|* mo tre|vec- ci-|net, se-|mo tre vec- ci-|ne- ne- ne- ne- net' in|
 _B,2 A,2 G,F, G,2 | C,8 :: z2 F,2 F,2 F,2 | F,2 F,2 C2 B,C | D2 D,2 A,4 | A,4 z2 F,2 | %12
w: a- mo- ra- na- na-|i.|Che- sem' im-|ber- to na- na- na-|n- na- na-|i, di|
 F,2 F,2 C2 D2 | A,2 G,A, _B,2 A,B, | C2 _B,C F,4 | F,4 z2 F,2 | F,2 C,2 D,2 D,2 | A,4 B,2 C2- | %18
w: quel- la gran bel-|ta- na- na- na- na- na-|na- na- na- na-|e, che|por- ta per im-|pre- sa'el do-|
 C2 E2 D4 | G,4 z2 C2 | B,2 C2 F,2 F,2 | G,2 _B,4 C2 | G,3 F, G,2 E,2 | F,2 G,2 C,2 C,2 :| %24
w: * de sa-|e, s'in|ve- ri- ta e,|s'in ve- ri-|ta- na- na, s'in|ve- ri- ta e.|

